icons/line/clipboard-check.svg

<svg width="24" height="24" viewBox="0 0 24 24" fill="none" xmlns="http://www.w3.org/2000/svg">
<path fill-rule="evenodd" clip-rule="evenodd" d="M9 5C9 4.44772 9.44772 4 10 4H14C14.5523 4 15 4.44772 15 5C15 5.55228 14.5523 6 14 6H10C9.44772 6 9 5.55228 9 5ZM10 2C8.69378 2 7.58254 2.83481 7.17071 4H6C4.34315 4 3 5.34315 3 7V19C3 20.6569 4.34315 22 6 22H18C19.6569 22 21 20.6569 21 19V7C21 5.34315 19.6569 4 18 4H16.8293C16.4175 2.83481 15.3062 2 14 2H10ZM6 6H7.17071C7.58254 7.16519 8.69378 8 10 8H14C15.3062 8 16.4175 7.16519 16.8293 6H18C18.5523 6 19 6.44772 19 7V19C19 19.5523 18.5523 20 18 20H6C5.44772 20 5 19.5523 5 19V7C5 6.44772 5.44772 6 6 6ZM15.7071 11.7071C16.0976 11.3166 16.0976 10.6834 15.7071 10.2929C15.3166 9.90237 14.6834 9.90237 14.2929 10.2929L11 13.5858L9.70711 12.2929C9.31658 11.9024 8.68342 11.9024 8.29289 12.2929C7.90237 12.6834 7.90237 13.3166 8.29289 13.7071L10.2929 15.7071C10.6834 16.0976 11.3166 16.0976 11.7071 15.7071L15.7071 11.7071Z" fill="currentColor"/>
</svg>

<svg width="24" height="24" fill="none" xmlns="http://www.w3.org/2000/svg"><path fill-rule="evenodd" clip-rule="evenodd" d="M9 5a1 1 0 011-1h4a1 1 0 110 2h-4a1 1 0 01-1-1zm1-3a3.001 3.001 0 00-2.83 2H6a3 3 0 00-3 3v12a3 3 0 003 3h12a3 3 0 003-3V7a3 3 0 00-3-3h-1.17A3.001 3.001 0 0014 2h-4zM6 6h1.17A3.001 3.001 0 0010 8h4a3.001 3.001 0 002.83-2H18a1 1 0 011 1v12a1 1 0 01-1 1H6a1 1 0 01-1-1V7a1 1 0 011-1zm9.707 5.707a1 1 0 00-1.414-1.414L11 13.586l-1.293-1.293a1 1 0 00-1.414 1.414l2 2a1 1 0 001.414 0l4-4z" fill="currentColor"/></svg>
